X: 36
T:The Musical Priest
M:4/4
L:1/8
Q:150
C:Traditional
K:G
EAAG ABcA |BAGB dBAG |EAAG ABcA |1BAGB A2 AG :|2
BAGB A3 B ||c2 cB cedc |(3BAG dG eGdG |cBAB cdef |
gedB cAAB |cBAB cedB |GBdB GBdB |cBAB cdef |
gedB cA A2 ||aA (3cBA aA (3cBA |BAGB dBA
G |aA (3cBA aA (3cBA |
BAGA BA A2 |aA (3cBA aA (3cBA |BAGB dBAG
 |ABcB cdef |
gedB cA A2 ||]
